src/svg/calculator.svg

<?xml version="1.0" encoding="iso-8859-1"?>
<!-- Generator: Adobe Illustrator 16.2.1, SVG Export Plug-In . SVG Version: 6.00 Build 0)  -->
<svg version="1.2" baseProfile="tiny" xmlns="http://www.w3.org/2000/svg" xmlns:xlink="http://www.w3.org/1999/xlink" x="0px"
	 y="0px" width="24px" height="24px" viewBox="0 0 24 24" xml:space="preserve">
<g id="Layer_1">
	<g>
		<path d="M17,21H9c-1.654,0-3-1.346-3-3V6c0-1.654,1.346-3,3-3h8c1.654,0,3,1.346,3,3v12C20,19.654,18.654,21,17,21z M9,5
			C8.449,5,8,5.449,8,6v12c0,0.551,0.449,1,1,1h8c0.551,0,1-0.449,1-1V6c0-0.551-0.449-1-1-1H9z"/>
	</g>
	<g>
		<circle cx="10" cy="11" r="1"/>
	</g>
	<g>
		<circle cx="13" cy="11" r="1"/>
	</g>
	<g>
		<circle cx="16" cy="11" r="1"/>
	</g>
	<g>
		<circle cx="10" cy="14" r="1"/>
	</g>
	<g>
		<circle cx="13" cy="14" r="1"/>
	</g>
	<g>
		<circle cx="16" cy="14" r="1"/>
	</g>
	<g>
		<circle cx="10" cy="17" r="1"/>
	</g>
	<g>
		<circle cx="13" cy="17" r="1"/>
	</g>
	<g>
		<circle cx="16" cy="17" r="1"/>
	</g>
	<g>
		<path d="M16,7v1h-6V7H16 M17,6h-1h-6H9v1v1v1h1h6h1V8V7V6z"/>
	</g>
</g>
<g id="nyt_x5F_exporter_x5F_info" display="none">
</g>
</svg>

<svg version="1.2" baseProfile="tiny" xmlns="http://www.w3.org/2000/svg" width="24" height="24" viewBox="0 0 24 24"><path d="M17 21h-8c-1.7 0-3-1.3-3-3v-12c0-1.7 1.3-3 3-3h8c1.7 0 3 1.3 3 3v12c0 1.7-1.3 3-3 3zm-8-16c-.6 0-1 .4-1 1v12c0 .6.4 1 1 1h8c.6 0 1-.4 1-1v-12c0-.6-.4-1-1-1h-8z"/><circle cx="10" cy="11" r="1"/><circle cx="13" cy="11" r="1"/><circle cx="16" cy="11" r="1"/><circle cx="10" cy="14" r="1"/><circle cx="13" cy="14" r="1"/><circle cx="16" cy="14" r="1"/><circle cx="10" cy="17" r="1"/><circle cx="13" cy="17" r="1"/><circle cx="16" cy="17" r="1"/><path d="M16 7v1h-6v-1h6m1-1h-8v3h8v-3z"/></svg>
